X:1
T:Gillian's Apples
T:Gillan's Apples
M:6/8
L:1/8
S:Chieftains 2 Trk.1
R:double jig
K:G
"G"~g3 "D"B2A| "G"GAG GBd| "Em"efe edB| "D"dBA A2B|
"G"GBd gdB| GBd g2a| "Em"bag "A"fge|1 "D"edc def:|2 "D"fdd d2e||
"D"faa faa| faa afd| "G"gbb gbb| gbb bag|
"D"faa faa| faa abc| "Em"bag "A"fge|1 "D"edc d2e:|2 "D"edc def||
"Version of 2nd part"||fda fda|fdf agf|geb geb|geg bag|!
fda fda|faa afa|bag fge|fdd def||!
